public/svg/branch.svg

<svg xmlns="http://www.w3.org/2000/svg" width="35" height="35" viewBox="0 0 35 35" fill="none">
<path fill-rule="evenodd" clip-rule="evenodd" d="M2.91699 7.29165C2.91699 10.5133 5.52866 13.125 8.75033 13.125C11.972 13.125 14.5837 10.5133 14.5837 7.29165C14.5837 4.06998 11.972 1.45831 8.75033 1.45831C5.52866 1.45831 2.91699 4.06998 2.91699 7.29165ZM11.6672 7.29165C11.6672 8.90248 10.3614 10.2083 8.75052 10.2083C7.13969 10.2083 5.83385 8.90248 5.83385 7.29165C5.83385 5.68082 7.13969 4.37498 8.75052 4.37498C10.3614 4.37498 11.6672 5.68082 11.6672 7.29165Z" fill="#1B5BF7"/>
<path opacity="0.3" fill-rule="evenodd" clip-rule="evenodd" d="M21.8753 14.5833V17.5H13.1253C12.0628 17.5 11.0667 17.2159 10.2087 16.7196V24.7917C10.2087 26.4025 11.5145 27.7083 13.1253 27.7083H21.8753V30.625H13.1253C9.90366 30.625 7.29199 28.0133 7.29199 24.7917V10.9375H7.29199V10.2083H10.2087V11.6666C10.2087 13.2775 11.5145 14.5833 13.1253 14.5833H21.8753Z" fill="#1B5BF7"/>
<path fill-rule="evenodd" clip-rule="evenodd" d="M20.417 29.1666C20.417 32.3883 23.0287 35 26.2503 35C29.472 35 32.0837 32.3883 32.0837 29.1666C32.0837 25.945 29.472 23.3333 26.2503 23.3333C23.0287 23.3333 20.417 25.945 20.417 29.1666ZM29.1672 29.1666C29.1672 30.7775 27.8614 32.0833 26.2505 32.0833C24.6397 32.0833 23.3339 30.7775 23.3339 29.1666C23.3339 27.5558 24.6397 26.25 26.2505 26.25C27.8614 26.25 29.1672 27.5558 29.1672 29.1666Z" fill="#1B5BF7"/>
<path fill-rule="evenodd" clip-rule="evenodd" d="M20.417 16.0416C20.417 19.2633 23.0287 21.875 26.2503 21.875C29.472 21.875 32.0837 19.2633 32.0837 16.0416C32.0837 12.82 29.472 10.2083 26.2503 10.2083C23.0287 10.2083 20.417 12.82 20.417 16.0416ZM29.1672 16.0416C29.1672 17.6525 27.8614 18.9583 26.2505 18.9583C24.6397 18.9583 23.3339 17.6525 23.3339 16.0416C23.3339 14.4308 24.6397 13.125 26.2505 13.125C27.8614 13.125 29.1672 14.4308 29.1672 16.0416Z" fill="#1B5BF7"/>
</svg>

<svg xmlns="http://www.w3.org/2000/svg" width="35" height="35" fill="none" xmlns:v="https://vecta.io/nano"><g fill-rule="evenodd" fill="#1b5bf7"><path d="M2.917 7.292c0 3.222 2.612 5.833 5.833 5.833s5.833-2.612 5.833-5.833-2.612-5.833-5.833-5.833S2.917 4.07 2.917 7.292zm8.75 0c0 1.611-1.306 2.917-2.917 2.917S5.834 8.902 5.834 7.292 7.14 4.375 8.751 4.375s2.917 1.306 2.917 2.917z"/><path opacity=".3" d="M21.875 14.583V17.5h-8.75c-1.062 0-2.059-.284-2.917-.78v8.072c0 1.611 1.306 2.917 2.917 2.917h8.75v2.917h-8.75c-3.222 0-5.833-2.612-5.833-5.833V10.938h0v-.729h2.917v1.458c0 1.611 1.306 2.917 2.917 2.917h8.75z"/><use href="#B"/><use href="#B" y="-13.125"/></g><defs ><path id="B" d="M20.417 29.167c0 3.222 2.612 5.833 5.833 5.833s5.833-2.612 5.833-5.833-2.612-5.833-5.833-5.833-5.833 2.612-5.833 5.833zm8.75 0c0 1.611-1.306 2.917-2.917 2.917s-2.917-1.306-2.917-2.917 1.306-2.917 2.917-2.917 2.917 1.306 2.917 2.917z"/></defs></svg>
